images/full-star.svg

<svg fill="none" height="16" viewBox="0 0 16 16" width="16" xmlns="http://www.w3.org/2000/svg"><path clip-rule="evenodd" d="m8 12.4377-2.83298 1.566c-.73057.4039-1.60513-.2123-1.47074-1.0361l.55372-3.39465-2.39092-2.45051c-.56841-.58258-.23988-1.56395.56472-1.68688l3.25857-.49787 1.41239-3.00908c.35992-.7668 1.45056-.7668 1.81048 0l1.41236 3.00908 3.2586.49787c.8046.12293 1.1331 1.1043.5647 1.68688l-2.3909 2.45051.5537 3.39465c.1344.8238-.7402 1.44-1.4707 1.0361z" fill="#ffb547" fill-rule="evenodd"/></svg>

<svg width="16" height="16" viewBox="0 0 16 16" fill="none" xmlns="http://www.w3.org/2000/svg">
<path fill-rule="evenodd" clip-rule="evenodd" d="M8 12.4377L5.16702 14.0037C4.43645 14.4076 3.56189 13.7914 3.69628 12.9676L4.25 9.57295L1.85908 7.12244C1.29067 6.53986 1.6192 5.55849 2.4238 5.43556L5.68237 4.93769L7.09476 1.92861C7.45468 1.16181 8.54532 1.16181 8.90524 1.92861L10.3176 4.93769L13.5762 5.43556C14.3808 5.55849 14.7093 6.53986 14.1409 7.12244L11.75 9.57295L12.3037 12.9676C12.4381 13.7914 11.5635 14.4076 10.833 14.0037L8 12.4377Z" fill="#FFB547"/>
</svg>
